!!!!SEGMENT: pl-wru--50044-muz--001-018_buchner-philipp-friedrich--plectrum-musicum-sonata-xviii.krn
!!!cenid: 16xx:1819
!!!COM: Buchner, Philipp Friedrich
!!!COM-rismID: pe30013776
!!!CDT:
!!!CNT:
!!!GTL: Plectrum musicum
!!!OTL: Sonata XVIII
!!!OMV: 018
!!!PDT: 1662
!!!AGN:
!!!SMS-siglum: PL-WRu
!!!SMS-shelfmark: 50044 Muz.
!!!SMS-shelfwork: 001-018 G
!!!SMS-variant:
!!!SMS-altvar:
!!!NIFC-rismSourceID: 990007465
!!!NIFC-rismChildID: 990007465
!!!NIFC-islandoraID: none
!!!URL-pdf-islandora:
!!!URL-scan: https://www.bibliotekacyfrowa.pl/dlibra/doccontent?id=116 @EN{Scan on Digital Library of University of Wroclaw} @PL{Skany w portalu Biblioteka Cyfrowa Uniwersytetu Wrocławskiego}
!!!IIIF:
!!!ONB-nifc: UWAGA: Violino I: s. 16-17, Violino II: s. 30, Fagotto: s. 61, Bassus: s. 75, Bassus continuus: s. 90
!!!AIN: 1 fagot 2 violn
!!!key: C
**kern	**fba	**kern	**fba	**kern	**kern	**kern
*part5	*part5	*part4	*part4	*part3	*part2	*part1
*staff5	*	*staff4	*	*staff3	*staff2	*staff1
*I"BASSUS CONTINUUS	*	*I"BASSVS	*	*I"VIOLINO II.	*I"VIOLINO I.	*I"FAGOTTO
*I'bc	*	*I'b	*	*I'vl 2	*I'vl 1	*I'fag
*	*	*	*	*ICstr	*ICstr	*ICww
*	*	*	*	*Ivioln	*Ivioln	*Ifagot
*IGcont	*	*IGcont	*	*	*	*
*clefF4	*	*clefF4	*	*clefG2	*clefG2	*clefF4
*k[]	*	*k[]	*	*k[]	*k[]	*k[]
*C:	*	*C:	*	*C:	*C:	*C:
*M2/2	*	*M2/2	*	*M2/2	*M2/2	*M2/2
*met(C|)	*	*met(C|)	*	*met(C|)	*met(C|)	*met(C|)
=1-	=1-	=1-	=1-	=1-	=1-	=1-
!LO:TX:a:t=Sonata XVIII.	!LO:TX:a:t=Sonata XVIII.	!LO:TX:a:t=Sonata XVIII.	!LO:TX:a:t=Sonata XVIII.	!LO:TX:a:t=Sonata XVIII.	!LO:TX:a:t=Sonata XVIII.	!LO:TX:a:t=Sonata XVIII.
!LO:TX:b:t=Allegro.	!	!LO:TX:b:t=Allegro.	!	!LO:TX:b:t=Allegro.	!	!LO:TX:b:t=Allegro.
2.C/	.	2.C/	.	0r	8r	0r
!	!	!	!	!	!LO:TX:b:t=Allegro.	!
.	.	.	.	.	8aa\	.
.	.	.	.	.	8ee\	.
.	.	.	.	.	8gg\	.
.	.	.	.	.	8cc\	.
.	.	.	.	.	8ee\	.
4G\	.	4G\	.	.	8.b/	.
!	!	!	!	!	!LO:TX:t=P:problem:kreska pseudotaktowa	!
.	.	.	.	.	16dd\	.
=2-	=2-	=2-	=2-	=2-	=2-	=2-
4A\	.	4A\	.	.	8cc\	.
.	.	.	.	.	16ee\	.
.	.	.	.	.	16ff\	.
4B\	6	4B\	6	.	8gg\	.
.	.	.	.	.	16ff\	.
.	.	.	.	.	16gg\	.
4c\	.	4c\	.	.	8ee\	.
.	.	.	.	.	16cc\	.
.	.	.	.	.	16dd\	.
!LO:TX:t=P:problem:kreska pseudotaktowa	!	!LO:TX:t=P:problem:kreska pseudotaktowa	!	!	!	!
4C/	.	4C/	.	.	8ee\	.
.	.	.	.	.	16dd\	.
!	!	!	!	!	!LO:TX:t=P:problem:kreska pseudotaktowa	!
.	.	.	.	.	16ee\	.
=3-	=3-	=3-	=3-	=3-	=3-	=3-
4D/	.	4D/	.	1r	8a/	4r
.	.	.	.	.	8b/	.
4E\	.	4E\	.	.	4.cc\	8r
.	.	.	.	.	.	8E\
4F\	.	4F\	.	.	.	8F\
.	.	.	.	.	8dd\	8F\
4G\	.	4G\	.	.	4b/	16G\
.	.	.	.	.	.	16E\
.	.	.	.	.	.	16F\
!	!	!	!	!	!	!LO:TX:t=P:problem:kreska pseudotaktowa
.	.	.	.	.	.	16G\
=4-	=4-	=4-	=4-	=4-	=4-	=4-
2.C/	.	2.C/	.	8r	2cc\	4C/
.	.	.	.	8gg\	.	.
.	.	.	.	8ee\	.	4r
.	.	.	.	8gg\	.	.
.	.	.	.	8cc\	2r	4r
.	.	.	.	8ee\	.	.
!LO:TX:t=P:problem:kreska pseudotaktowa	!	!LO:TX:t=P:problem:kreska pseudotaktowa	!	!	!	!
4G\	.	4G\	.	8.b/	.	8r
!	!	!	!	!	!	!LO:TX:t=P:problem:kreska pseudotaktowa
.	.	.	.	.	.	8G\
!	!	!	!	!LO:TX:t=P:problem:kreska pseudotaktowa	!	!
.	.	.	.	16dd\	.	.
=5-	=5-	=5-	=5-	=5-	=5-	=5-
4A\	5:6	4A\	5:6	8cc\	0r	8A\
.	.	.	.	16ee\	.	8A\
.	.	.	.	16ff\	.	.
4B\	6	4B\	6	8gg\	.	16B\
.	.	.	.	.	.	16G\
.	.	.	.	16ff\	.	16A\
.	.	.	.	16gg\	.	16B\
4c\	.	4c\	.	8ee\	.	4c\
.	.	.	.	16cc\	.	.
.	.	.	.	16dd\	.	.
!LO:TX:t=P:problem:kreska pseudotaktowa	!	!LO:TX:t=P:problem:kreska pseudotaktowa	!	!	!	!LO:TX:t=P:problem:kreska pseudotaktowa
4C/	.	4C/	.	8ee\	.	4r
.	.	.	.	16dd\	.	.
!	!	!	!	!LO:TX:t=P:problem:kreska pseudotaktowa	!	!
.	.	.	.	16ee\	.	.
=6-	=6-	=6-	=6-	=6-	=6-	=6-
4D/	#	4D/	#	8ff#X\	.	4r
.	.	.	.	8ff#\	.	.
4BB/	.	4BB/	.	4.gg\	.	8r
.	.	.	.	.	.	8BB/
4C/	.	4C/	.	.	.	8C/
.	.	.	.	8aa\	.	8C/
!	!	!	!	!LO:TX:t=P:problem:kreska pseudotaktowa	!	!
4D/	#	4D/	#	4ff#X\	.	16D/
.	.	.	.	.	.	16BB/
.	.	.	.	.	.	16C/
.	.	.	.	.	.	16D/
=7-	=7-	=7-	=7-	=7-	=7-	=7-
4GG/	.	4GG/	.	4gg\	4r	4GG/
[<4G\	.	[<4G\	.	8r	8r	4r
.	.	.	.	8dd\	8b/	.
!	!	!	!	!	!	!LO:TX:t=P:problem:kreska pseudotaktowa
4G\]	6 4	4G\]	6 4	8ee\	8cc\	2r
.	.	.	.	8ee\	8cc\	.
4F#X\	6	4F#X\	6	16ff#X\	16dd\	.
.	.	.	.	16dd\	16b/	.
.	.	.	.	16ee\	16cc\	.
.	.	.	.	16ff#\	16dd\	.
*	*	*	*	*custos:b	*	*
!	!	!	!	!LO:LB:g=original	!	!
=8-	=8-	=8-	=8-	=8-	=8-	=8-
4G\	.	4G\	.	4b/	4g/	8r
.	.	.	.	.	.	8G\
4E\	.	4E\	.	8r	4r	8E\
.	.	.	.	8gg\	.	8G\
4C/	.	4C/	.	8aa\	2r	8C/
.	.	.	.	8aa\	.	8E\
!LO:TX:t=P:problem:kreska pseudotaktowa	!	!LO:TX:t=P:problem:kreska pseudotaktowa	!	!	!	!
4BB/	.	4BB/	.	16bb\	.	8.BB/
.	.	.	.	16gg\	.	.
.	.	.	.	16aa\	.	.
!	!	!	!	!LO:TX:t=P:problem:kreska pseudotaktowa	!	!
.	.	.	.	16bb\	.	16D/
*	*	*	*	*	*	*custos:C
!	!	!	!	!	!	!LO:LB:g=original
=9-	=9-	=9-	=9-	=9-	=9-	=9-
4C/	.	4C/	.	4ee\	4r	8C/
.	.	.	.	.	.	16E\
.	.	.	.	.	.	16F\
8G\	.	8G\	.	4r	8ryy	8G\
8Fny\	6	8Fny\	6	.	8dd\	16F\
.	.	.	.	.	.	16G\
*	*	*	*	*	*custos:ee	*
!	!	!	!	!LO:TX:t=P:problem:kreska pseudotaktowa	!LO:LB:g=original	!
8E\	.	8E\	.	2r	8ee\	8E\
8C/	.	8C/	.	.	8ee\	16C/
.	.	.	.	.	.	16D/
!LO:TX:t=P:problem:kreska pseudotaktowa	!	!LO:TX:t=P:problem:kreska pseudotaktowa	!	!	!	!
4E\	-	4E\	-	.	16aa\	8E\
.	.	.	.	.	16ee\	.
.	.	.	.	.	16ff\	16D/
!	!	!	!	!	!LO:TX:t=P:problem:kreska pseudotaktowa	!LO:TX:t=P:problem:kreska pseudotaktowa
.	.	.	.	.	16gg\	16E\
=10-	=10-	=10-	=10-	=10-	=10-	=10-
4AA/	.	4AA/	.	4r	4cc\	8AA/
.	.	.	.	.	.	8BB/
[4C/	.	[4C/	.	8r	8r	4.C/
.	.	.	.	8ee\	8gg\	.
4C/]	6 4	4C/]	6 4	8ffny\	8aa\	.
.	.	.	.	8ff\	8aa\	8D/
4BB/	6	4BB/	6	16gg\	16bb\	4BB/
.	.	.	.	16ee\	16gg\	.
.	.	.	.	16ff\	16aa\	.
!	!	!	!	!LO:TX:t=P:problem:kreska pseudotaktowa	!LO:TX:t=P:problem:kreska pseudotaktowa	!
.	.	.	.	16gg\	16bb\	.
*custos:C	*	*custos:C	*	*	*	*
!LO:PB:g=original	!	!LO:PB:g=original	!	!	!	!
=11-	=11-	=11-	=11-	=11-	=11-	=11-
2.C/	.	2.C/	.	4cc\	8ee\	2C/
.	.	.	.	.	8gg\	.
.	.	.	.	8r	8ee\	.
.	.	.	.	8gg\	8gg\	.
.	.	.	.	8ee\	8cc\	2r
.	.	.	.	8gg\	8ee\	.
!LO:TX:t=P:problem:kreska pseudotaktowa	!	!LO:TX:t=P:problem:kreska pseudotaktowa	!	!	!	!
4C/	6	4C/	6	8cc\	8a/	.
!	!	!	!	!LO:TX:t=P:problem:kreska pseudotaktowa	!LO:TX:t=P:problem:kreska pseudotaktowa	!
.	.	.	.	8ee\	8cc\	.
=12-	=12-	=12-	=12-	=12-	=12-	=12-
2F\	5:6	2F\	5:6	8a/	8f/	1r
.	.	.	.	8cc\	8a/	.
.	.	.	.	8f/	8d/	.
.	.	.	.	8a/	8f/	.
2G\	.	2G\	.	4d/	8B/	.
.	.	.	.	.	8dd\	.
!	!	!	!	!LO:TX:t=P:problem:kreska pseudotaktowa	!	!
.	.	.	.	4r	8b/	.
.	.	.	.	.	8dd\	.
=13-	=13-	=13-	=13-	=13-	=13-	=13-
2E\	-	2E\	-	8r	4g/	2r
.	.	.	.	8gg\	.	.
.	.	.	.	8ee\	4r	.
.	.	.	.	8gg\	.	.
!	!	!	!	!	!LO:TX:t=P:problem:kreska pseudotaktowa	!
4A\	.	4A\	.	8cc\	2r	4r
.	.	.	.	8ee\	.	.
!LO:TX:t=P:problem:kreska pseudotaktowa	!	!LO:TX:t=P:problem:kreska pseudotaktowa	!	!	!	!
4G\	.	4G\	.	8.b/	.	8r
!	!	!	!	!	!	!LO:TX:t=P:problem:kreska pseudotaktowa
.	.	.	.	.	.	8G\
.	.	.	.	16dd\	.	.
*	*	*	*	*custos:cc	*	*
!	!	!	!	!LO:LB:g=original	!	!
=14-	=14-	=14-	=14-	=14-	=14-	=14-
4A\	.	4A\	.	8cc\	8r	8A\
.	.	.	.	8cc\	16ee\	8A\
.	.	.	.	.	16ff\	.
4B\	.	4B\	.	8b/	8gg\	16B\
.	.	.	.	.	.	16G\
.	.	.	.	8dd\	16ff\	16A\
.	.	.	.	.	16gg\	16B\
*	*	*	*	*	*custos:ee	*
!	!	!	!	!	!LO:LB:g=original	!
4c\	.	4c\	.	8g/	8ee\	4c\
.	.	.	.	16ee\	16cc\	.
.	.	.	.	16ff\	16dd\	.
!	!	!	!	!	!	!LO:TX:t=P:problem:kreska pseudotaktowa
[4C/	.	[4C/	.	8gg\	8ee\	4r
.	.	.	.	16ff\	16dd\	.
!	!	!	!	!	!LO:TX:t=P:problem:kreska pseudotaktowa	!
.	.	.	.	16gg\	16ee\	.
=15-	=15-	=15-	=15-	=15-	=15-	=15-
4C/]	.	4C/]	.	4ee\	8cc\	8r
.	.	.	.	.	8gg\	16C/
.	.	.	.	.	.	16D/
4E\	-	4E\	-	4r	8ee\	8E\
.	.	.	.	.	8gg\	16D/
.	.	.	.	.	.	16E\
!	!	!	!	!LO:TX:t=P:problem:kreska pseudotaktowa	!	!
4AA/	.	4AA/	.	2r	8cc\	8AA/
.	.	.	.	.	8ee\	16A\
.	.	.	.	.	.	16B\
!	!	!	!	!	!LO:TX:t=P:problem:kreska pseudotaktowa	!
4A\	.	4A\	.	.	4a/	8c\
.	.	.	.	.	.	16B\
.	.	.	.	.	.	16c\
*	*	*	*	*	*	*custos:A
!	!	!	!	!	!	!LO:LB:g=original
=16-	=16-	=16-	=16-	=16-	=16-	=16-
4F\	.	4F\	.	8r	2r	8A\
.	.	.	.	8cc\	.	16F\
.	.	.	.	.	.	16G\
4A\	.	4A\	.	8a/	.	8A\
.	.	.	.	8cc\	.	16G\
.	.	.	.	.	.	16A\
4D/	.	4D/	.	4f/	4r	8D/
.	.	.	.	.	.	8E\
!	!	!	!	!	!	!LO:TX:t=P:problem:kreska pseudotaktowa
[<4F\	.	[<4F\	.	8r	8r	4.F\
!	!	!	!	!LO:TX:t=P:problem:kreska pseudotaktowa	!LO:TX:t=P:problem:kreska pseudotaktowa	!
.	.	.	.	8cc\	8aa\	.
=17-	=17-	=17-	=17-	=17-	=17-	=17-
4F\]	6 4	4F\]	6 4	8dd\	8bb-X\	.
.	.	.	.	8dd\	8bb-\	8F\
4E\	6	4E\	6	16ee\	16ccc\	4E\
.	.	.	.	16cc\	16aa\	.
.	.	.	.	16dd\	16bb-\	.
.	.	.	.	16ee\	16ccc\	.
!LO:TX:t=P:problem:kreska pseudotaktowa	!	!LO:TX:t=P:problem:kreska pseudotaktowa	!	!	!	!
2F\	.	2F\	.	4a/	4dd\	4F\
.	.	.	.	8r	8r	8r
!	!	!	!	!LO:TX:t=P:problem:kreska pseudotaktowa	!LO:TX:t=P:problem:kreska pseudotaktowa	!LO:TX:t=P:problem:kreska pseudotaktowa
.	.	.	.	8ff\	8aa\	8F\
=18-	=18-	=18-	=18-	=18-	=18-	=18-
4G\	.	4G\	.	8.ee\	8.gg\	8G\
.	.	.	.	.	.	8G\
.	.	.	.	16dd\	16ff\	.
4A\	#	4A\	#	8cc#X\	8ee\	16A\
.	.	.	.	.	.	16F\
.	.	.	.	8cc#\	8ee\	16G\
.	.	.	.	.	.	16A\
4D/	.	4D/	.	4dd\	4dd\	4D/
4E\	6	4E\	6	8r	8r	8r
!	!	!	!	!LO:TX:t=P:problem:kreska pseudotaktowa	!LO:TX:t=P:problem:kreska pseudotaktowa	!LO:TX:t=P:problem:kreska pseudotaktowa
.	.	.	.	8cc#\	8gg\	8E\
=19-	=19-	=19-	=19-	=19-	=19-	=19-
4F\	.	4F\	.	8.dd\	8.ff\	8F\
.	.	.	.	.	.	8F\
.	.	.	.	16ccny\	16ee\	.
4G\	.	4G\	.	8b/	8dd\	16G\
.	.	.	.	.	.	16E\
.	.	.	.	8b/	8dd\	16F\
.	.	.	.	.	.	16G\
4C/	.	4C/	.	4cc\	8cc\	4C/
.	.	.	.	.	8cc\	.
!LO:TX:t=P:problem:kreska pseudotaktowa	!	!LO:TX:t=P:problem:kreska pseudotaktowa	!	!	!	!LO:TX:t=P:problem:kreska pseudotaktowa
4G\	.	4G\	.	4r	8b/	4r
.	.	.	.	.	8dd\	.
*	*	*	*	*custos:gg	*custos:g	*
!	!	!	!	!LO:LB:g=original	!LO:LB:g=original	!
=20-	=20-	=20-	=20-	=20-	=20-	=20-
4E\	.	4E\	.	1r	8g/	4r
.	.	.	.	.	8b/	.
4D/	.	4D/	.	.	8.f#X/	8r
.	.	.	.	.	.	8D/
.	.	.	.	.	16a/	.
4E\	.	4E\	.	.	8g/	8E\
.	.	.	.	.	16b/	8E\
.	.	.	.	.	16cc\	.
4F#X\	.	4F#X\	.	.	8dd\	16F#X\
.	.	.	.	.	.	16D/
.	.	.	.	.	16cc\	16E\
!	!	!	!	!	!LO:TX:t=P:problem:kreska pseudotaktowa	!LO:TX:t=P:problem:kreska pseudotaktowa
.	.	.	.	.	16dd\	16F#\
=21-	=21-	=21-	=21-	=21-	=21-	=21-
2G\	.	2G\	.	8r	8b/	4G\
.	.	.	.	16gg\	8b/	.
.	.	.	.	16aa\	.	.
.	.	.	.	8bb\	8g/	4r
.	.	.	.	16aa\	8dd\	.
.	.	.	.	16bb\	.	.
*	*	*	*	*	*	*custos:BB
!	!	!	!	!	!	!LO:LB:g=original
4C/	.	4C/	.	8ee\	4cc\	4r
.	.	.	.	8ff\	.	.
!	!	!	!	!LO:TX:t=P:problem:kreska pseudotaktowa	!LO:TX:t=P:problem:kreska pseudotaktowa	!
4BB/	.	4BB/	.	4.gg\	4r	8r
!	!	!	!	!	!	!LO:TX:t=P:problem:kreska pseudotaktowa
.	.	.	.	.	.	8BB/
=22-	=22-	=22-	=22-	=22-	=22-	=22-
4C/	.	4C/	.	.	4r	8C/
.	.	.	.	8gg\	.	8C/
4D/	#	4D/	#	4ff#X\	8r	16D/
.	.	.	.	.	.	16BB/
.	.	.	.	.	8dd\	16C/
.	.	.	.	.	.	16D/
2GG/	5	2GG/	5	8gg\	8b/	4GG/
.	.	.	.	8dd\	8dd\	.
!	!	!	!	!	!	!LO:TX:t=P:problem:kreska pseudotaktowa
.	.	.	.	8b/	8g/	4r
!	!	!	!	!LO:TX:t=P:problem:kreska pseudotaktowa	!LO:TX:t=P:problem:kreska pseudotaktowa	!
.	.	.	.	8dd\	8b/	.
*custos:GG	*	*custos:GG	*	*	*	*
!LO:LB:g=original	!	!LO:LB:g=original	!	!	!	!
=23-	=23-	=23-	=23-	=23-	=23-	=23-
4GG/	6	4GG/	6	8g/	8e/	4r
.	.	.	.	8b/	8g/	.
4C/	.	4C/	.	8e/	4d/	8r
.	.	.	.	8g/	.	8c\
4A\	.	4A\	.	4d/	4r	8A\
.	.	.	.	.	.	8c\
!	!	!	!	!LO:TX:t=P:problem:kreska pseudotaktowa	!	!
4Fny\	.	4Fny\	.	4r	8r	8Fny\
!	!	!	!	!	!LO:TX:t=P:problem:kreska pseudotaktowa	!LO:TX:t=P:problem:kreska pseudotaktowa
.	.	.	.	.	8aa\	8A\
=24-	=24-	=24-	=24-	=24-	=24-	=24-
2D/	.	2D/	.	8r	8ff#X\	4D/
.	.	.	.	16f#X/	8aa\	.
.	.	.	.	16g/	.	.
.	.	.	.	8a/	8dd\	8r
.	.	.	.	16g/	8ff#X\	8D/
.	.	.	.	16a/	.	.
4E\	.	4E\	.	8g/	4b/	8E\
.	.	.	.	16b/	.	8E\
.	.	.	.	16cc\	.	.
4F#X\	.	4F#X\	.	8dd\	4r	16F#X\
.	.	.	.	.	.	16D/
.	.	.	.	16cc\	.	16E\
!	!	!	!	!LO:TX:t=P:problem:kreska pseudotaktowa	!	!LO:TX:t=P:problem:kreska pseudotaktowa
.	.	.	.	16dd\	.	16F#\
=25-	=25-	=25-	=25-	=25-	=25-	=25-
2G\	.	2G\	.	8b/	8r	4G\
.	.	.	.	16g/	8bbny\	.
.	.	.	.	16a/	.	.
.	.	.	.	8b/	8gg\	8r
.	.	.	.	16a/	8bb\	8G\
.	.	.	.	16b/	.	.
*	*	*	*	*	*custos:ee	*
!	!	!	!	!	!LO:LB:g=original	!
4A\	.	4A\	.	4cc\	8ee\	8A\
.	.	.	.	.	16ee\	8A\
.	.	.	.	.	16ffny\	.
4B\	6	4B\	6	4r	8gg\	16B\
.	.	.	.	.	.	16G\
.	.	.	.	.	16ff\	16A\
!	!	!	!	!	!LO:TX:t=P:problem:kreska pseudotaktowa	!
.	.	.	.	.	16gg\	16B\
*	*	*	*	*custos:ee	*	*
!	!	!	!	!LO:LB:g=original	!	!
=26-	=26-	=26-	=26-	=26-	=26-	=26-
4c\	.	4c\	.	4r	4ee\	8c\
.	.	.	.	.	.	8G\
[4C/	.	[4C/	.	8r	8r	8E\
.	.	.	.	8ee\	8gg\	8G\
4C/]	6 4	4C/]	6 4	8ffny\	8aa\	4C/
.	.	.	.	8ff\	8aa\	.
!LO:TX:t=P:problem:kreska pseudotaktowa	!	!LO:TX:t=P:problem:kreska pseudotaktowa	!	!	!	!LO:TX:t=P:problem:kreska pseudotaktowa
4BB/	6	4BB/	6	16gg\	16bb\	4BB/
.	.	.	.	16ee\	16gg\	.
.	.	.	.	16ff\	16aa\	.
!	!	!	!	!LO:TX:t=P:problem:kreska pseudotaktowa	!LO:TX:t=P:problem:kreska pseudotaktowa	!
.	.	.	.	16gg\	16bb\	.
=27-	=27-	=27-	=27-	=27-	=27-	=27-
4C/	.	4C/	.	8cc\	8ee\	4C/
.	.	.	.	8ee\	8gg\	.
4E\	.	4E\	.	8cc\	8ee\	4E\
.	.	.	.	8ee\	8gg\	.
*	*	*	*	*	*	*custos:F
!	!	!	!	!	!	!LO:LB:g=original
4Fny\	.	4Fny\	.	8a/	8cc\	8Fny\
.	.	.	.	8dd\	8ff\	8F\
!	!	!	!	!LO:TX:t=P:problem:kreska pseudotaktowa	!	!
4G\	.	4G\	.	4b/	8dd\	16G\
.	.	.	.	.	.	16E\
!	!	!	!	!	!LO:TX:t=P:problem:kreska pseudotaktowa	!
.	.	.	.	.	8gg\	16F\
!	!	!	!	!	!	!LO:TX:t=P:problem:kreska pseudotaktowa
.	.	.	.	.	.	16G\
=28-	=28-	=28-	=28-	=28-	=28-	=28-
2C/	.	2C/	.	8.cc\	8ee\	4.C/
.	.	.	.	.	8gg\	.
.	.	.	.	16gg\	.	.
.	.	.	.	8ee\	8cc\	.
.	.	.	.	8gg\	8ee\	8C/
4F\	.	4F\	.	8cc\	8a/	4F\
.	.	.	.	8dd\	8b/	.
!	!	!	!	!	!LO:TX:t=P:problem:kreska pseudotaktowa	!
8E\	.	8E\	.	4ee\	4cc\	8E\
!	!	!	!	!	!	!LO:TX:t=P:problem:kreska pseudotaktowa
8F\	.	8F\	.	.	.	8F\
=29-	=29-	=29-	=29-	=29-	=29-	=29-
4G\	.	4G\	.	8dd\	4b/	8G\
.	.	.	.	8gg\	.	8E\
4A\	.	4A\	.	8cc\	2cc\	8A\
.	.	.	.	8ee\	.	8AA/
4F\	6 5	4F\	6 5	2dd\	.	8FF/
.	.	.	.	.	.	8F\
4G\	.	4G\	.	.	4b/	8G\
.	.	.	.	.	.	8GG/
=30-	=30-	=30-	=30-	=30-	=30-	=30-
!LO:TX:t=P:problem:kreska pseudotaktowa	!	!LO:TX:t=P:problem:kreska pseudotaktowa	!	!LO:TX:t=P:problem:kreska pseudotaktowa	!LO:TX:t=P:problem:kreska pseudotaktowa	!LO:TX:t=P:problem:kreska pseudotaktowa
1C	.	1C	.	1cc	1cc	1C
=31-	=31-	=31-	=31-	=31-	=31-	=31-
!	!	!	!	!LO:TX:b:t=adagio.	!LO:TX:b:t=Adagio.	!LO:TX:b:t=adagio.
1F	.	1F	.	2a/	2cc\	2F\
.	.	.	.	4a/	4cc\	4F\
.	.	.	.	4a/	4cc\	4F\
=32-	=32-	=32-	=32-	=32-	=32-	=32-
!LO:TX:b:t=adagio.	!	!LO:TX:b:t=adagio.	!	!	!	!
2E\	6	2E\	6	2g/	2cc\	2E\
*	*	*	*	*	*custos:cc#	*
!	!	!	!	!	!LO:LB:g=original	!
4r	.	4r	.	4r	4r	4r
4E\	6#	4E\	6#	4g/	4cc#X\	4E\
=33-	=33-	=33-	=33-	=33-	=33-	=33-
4D/	.	4D/	.	8a/	4dd\	4D/
.	.	.	.	8b/	.	.
4C/	.	4C/	.	8cc\	4.ee\	4C/
.	.	.	.	8b/	.	.
2F\	7:6	2F\	7:6	4.a/	.	2F\
.	.	.	.	.	8ee\	.
.	.	.	.	.	4dd\	.
.	.	.	.	8b/	.	.
=34-	=34-	=34-	=34-	=34-	=34-	=34-
!LO:TX:t=P:problem:kreska pseudotaktowa	!	!LO:TX:t=P:problem:kreska pseudotaktowa	!	!	!LO:TX:t=P:problem:kreska pseudotaktowa	!LO:TX:t=P:problem:kreska pseudotaktowa
1E	#	1E	#	1g#X	1ee	1E
*	*	*	*	*custos:cc	*	*
!	!	!	!	!LO:PB:g=original	!	!
=35-	=35-	=35-	=35-	=35-	=35-	=35-
1A	.	1A	.	2cc\	2ee\	2A\
.	.	.	.	4cc\	4ee\	4A\
.	.	.	.	4cc\	4ee\	4A\
=36-	=36-	=36-	=36-	=36-	=36-	=36-
2G#X\	6	2G#X\	6	2b/	2ee\	2G#X\
4r	.	4r	.	4r	4r	4r
!	!	!	!	!	!	!LO:TX:t=P:problem:kreska pseudotaktowa
!LO:N:acc=-	!	!LO:N:acc=-	!	!	!	!LO:N:acc=-
4Gn\	6	4Gn\	6	4b/	4ee\	4Gn\
*custos:F#	*	*custos:F#	*	*	*	*
!LO:LB:g=original	!	!LO:LB:g=original	!	!	!	!
=37-	=37-	=37-	=37-	=37-	=37-	=37-
4F#X\	.	4F#X\	.	4a/	4ff#X\	4F#X\
4E\	.	4E\	.	4b/	4.gg\	4E\
2A\	7:6 #	2A\	7:6 #	2cc\	.	2A\
.	.	.	.	.	8gg\	.
.	.	.	.	.	4ff#X\	.
*	*	*	*	*	*	*custos:G
!	!	!	!	!	!	!LO:LB:g=original
=38-	=38-	=38-	=38-	=38-	=38-	=38-
1G	.	1G	.	1b	1gg	1G
=39-	=39-	=39-	=39-	=39-	=39-	=39-
*M3/2	*	*M3/2	*	*M3/2	*M3/3	*M3/2
2.c\	.	2.c\	.	00.r	0.r	4c\
.	.	.	.	.	.	4B\
.	.	.	.	.	.	4c\
4G\	.	4G\	.	.	.	4G\
4A\	.	4A\	.	.	.	4A\
!	!	!	!	!	!	!LO:TX:t=P:problem:kreska pseudotaktowa
4E\	.	4E\	.	.	.	4E\
=40-	=40-	=40-	=40-	=40-	=40-	=40-
2.Fny\	.	2.Fny\	.	.	.	4Fny\
.	.	.	.	.	.	4E\
.	.	.	.	.	.	4F\
4D/	.	4D/	.	.	.	4D/
4E\	.	4E\	.	.	.	4E\
!LO:TX:t=P:problem:kreska pseudotaktowa	!	!LO:TX:t=P:problem:kreska pseudotaktowa	!	!	!	!
4C/	.	4C/	.	.	.	4C/
=41-	=41-	=41-	=41-	=41-	=41-	=41-
2.G\	.	2.G\	.	.	4gg\	2.G\
.	.	.	.	.	4ffny\	.
.	.	.	.	.	4gg\	.
4F\	6	4F\	6	.	4dd\	8F\
.	.	.	.	.	.	8G\
!	!	!	!	!	!	!LO:TX:t=P:problem:kreska pseudotaktowa
2E\	-	2E\	-	.	4ee\	2E\
.	.	.	.	.	4b/	.
=42-	=42-	=42-	=42-	=42-	=42-	=42-
2.A\	.	2.A\	.	.	4ccny\	4A\
.	.	.	.	.	4b/	4G\
.	.	.	.	.	4cc\	4A\
4F\	.	4F\	.	.	4a/	4F\
4G\	.	4G\	.	.	4b/	4G\
!LO:TX:t=P:problem:kreska pseudotaktowa	!	!LO:TX:t=P:problem:kreska pseudotaktowa	!	!	!	!
4E\	.	4E\	.	.	4g/	4E\
=43-	=43-	=43-	=43-	=43-	=43-	=43-
4A\	.	4A\	.	1.r	2.cc\	4A\
4G\	.	4G\	.	.	.	8G\
.	.	.	.	.	.	8A\
2.F\	.	2.F\	.	.	.	2.F\
.	.	.	.	.	8b/	.
.	.	.	.	.	8cc\	.
.	.	.	.	.	2a/	.
8E\	.	8E\	.	.	.	8E\
!LO:TX:t=P:problem:kreska pseudotaktowa	!	!LO:TX:t=P:problem:kreska pseudotaktowa	!	!	!	!LO:TX:t=P:problem:kreska pseudotaktowa
8D/	.	8D/	.	.	.	8D/
*	*	*	*	*	*custos:ee	*
!	!	!	!	!	!LO:LB:g=original	!
=44-	=44-	=44-	=44-	=44-	=44-	=44-
2.C/	.	2.C/	.	4cc\	4ee\	2.C/
.	.	.	.	4b/	4dd\	.
.	.	.	.	4cc\	4ee\	.
4E\	.	4E\	.	4gny/	4b/	4E\
2AA/	-	2AA/	-	4a/	4cc\	2AA/
.	.	.	.	4e/	4b/	.
=45-	=45-	=45-	=45-	=45-	=45-	=45-
1D	.	1D	.	4fny/	4a/	2D/
.	.	.	.	4e/	4g/	.
.	.	.	.	4f/	4a/	2r
.	.	.	.	4d/	4b/	.
!LO:TX:t=P:problem:kreska pseudotaktowa	!	!LO:TX:t=P:problem:kreska pseudotaktowa	!	!	!	!
2AA/	.	2AA/	.	4e/	4cc\	2r
!	!	!	!	!	!LO:TX:t=P:problem:kreska pseudotaktowa	!
.	.	.	.	4d/	4a/	.
*	*	*	*	*	*	*custos:E
!	!	!	!	!	!	!LO:PB:g=original
=46-	=46-	=46-	=46-	=46-	=46-	=46-
2.E\	.	2.E\	.	2.g/	2.b/	4E\
.	.	.	.	.	.	4D/
.	.	.	.	.	.	4E\
4BB/	.	4BB/	.	8f/	8a/	4BB/
.	.	.	.	8g/	8b/	.
!	!	!	!	!LO:TX:t=P:problem:kreska pseudotaktowa	!	!
4C/	.	4C/	.	2e/	4g/	4C/
!	!	!	!	!	!LO:TX:t=P:problem:kreska pseudotaktowa	!
4AA/	.	4AA/	.	.	4a/	4AA/
=47-	=47-	=47-	=47-	=47-	=47-	=47-
1GG	.	1GG	.	4b/	2d/	1GG
.	.	.	.	4a/	.	.
.	.	.	.	4b/	2r	.
.	.	.	.	4g/	.	.
!	!	!	!	!	!	!LO:TX:t=P:problem:kreska pseudotaktowa
2D/	-	2D/	-	4a/	2r	2r
.	.	.	.	4f#X/	.	.
*custos:G	*	*custos:G	*	*	*	*
!LO:LB:g=original	!	!LO:LB:g=original	!	!	!	!
=48-	=48-	=48-	=48-	=48-	=48-	=48-
2.G\	.	2.G\	.	2g/	4bb\	4G\
.	.	.	.	.	8aa\	4F#X\
.	.	.	.	.	8bb\	.
.	.	.	.	2r	2.gg\	4G\
4D/	.	4D/	.	.	.	4D/
!	!	!	!	!LO:TX:t=P:problem:kreska pseudotaktowa	!	!
4E\	.	4E\	.	2r	.	4E\
4BB/	5	4BB/	5	.	8ff\	4BB/
!	!	!	!	!	!LO:TX:t=P:problem:kreska pseudotaktowa	!
.	.	.	.	.	8gg\	.
*	*	*	*	*custos:dd	*	*
!	!	!	!	!LO:LB:g=original	!	!
=49-	=49-	=49-	=49-	=49-	=49-	=49-
2.C/	.	2.C/	.	1.r	4ee\	4C/
.	.	.	.	.	4dd\	4BB/
.	.	.	.	.	4ee\	4C/
4AA/	.	4AA/	.	.	4cc\	4AA/
4BB/	.	4BB/	.	.	4dd\	4BB/
!LO:TX:t=P:problem:kreska pseudotaktowa	!	!LO:TX:t=P:problem:kreska pseudotaktowa	!	!	!	!LO:TX:t=P:problem:kreska pseudotaktowa
4GG/	.	4GG/	.	.	4ee\	4GG/
=50-	=50-	=50-	=50-	=50-	=50-	=50-
2.D/	.	2.D/	.	4dd\	2ff\	2.D/
.	.	.	.	4cc\	.	.
.	.	.	.	4dd\	2r	.
4C/	6	4C/	6	4a/	.	8C/
.	.	.	.	.	.	8D/
!	!	!	!	!	!LO:TX:t=P:problem:kreska pseudotaktowa	!
2BB/	6	2BB/	6	4b/	2r	2BB/
!	!	!	!	!LO:TX:t=P:problem:kreska pseudotaktowa	!	!
.	.	.	.	4g/	.	.
=51-	=51-	=51-	=51-	=51-	=51-	=51-
1.AA	5:6	1.AA	5:6	2a/	4aa\	1AA
.	.	.	.	.	4gg\	.
.	.	.	.	2r	4aa\	.
.	.	.	.	.	4ee\	.
.	.	.	.	2r	4ff\	2r
.	.	.	.	.	4cc\	.
*	*	*	*	*	*custos:dd	*
!	!	!	!	!	!LO:LB:g=original	!
=52-	=52-	=52-	=52-	=52-	=52-	=52-
!LO:TX:t=P:problem:kreska pseudotaktowa	!	!LO:TX:t=P:problem:kreska pseudotaktowa	!	!	!	!LO:TX:t=P:problem:kreska pseudotaktowa
1.BB	5:6	1.BB	5:6	4bb\	2.dd\	1.r
.	.	.	.	4aa\	.	.
.	.	.	.	4bb\	.	.
.	.	.	.	4ff#X\	8cc\	.
.	.	.	.	.	8dd\	.
.	.	.	.	4aa\	4b/	.
.	.	.	.	4dd\	8a/	.
.	.	.	.	.	8b/	.
=53-	=53-	=53-	=53-	=53-	=53-	=53-
1.C	5:6	1.C	5:6	2.ee\	2g/	4c\
.	.	.	.	.	.	4B\
.	.	.	.	.	2r	4c\
.	.	.	.	8dd\	.	4G\
.	.	.	.	8ee\	.	.
!	!	!	!	!	!LO:TX:t=P:problem:kreska pseudotaktowa	!
.	.	.	.	4cc\	2r	4A\
.	.	.	.	8b/	.	4E\
.	.	.	.	8cc\	.	.
=54-	=54-	=54-	=54-	=54-	=54-	=54-
1.D	5:6 #	1.D	5:6 #	2a/	4dd\	2.F#X\
.	.	.	.	.	4cc\	.
.	.	.	.	2r	4dd\	.
.	.	.	.	.	4a/	8E\
.	.	.	.	.	.	8F#\
.	.	.	.	2r	4b/	2D/
!	!	!	!	!	!LO:TX:t=P:problem:kreska pseudotaktowa	!
.	.	.	.	.	4f#X/	.
=55-	=55-	=55-	=55-	=55-	=55-	=55-
1.E	5:6	1.E	5:6	1.r	2.g/	1E
.	.	.	.	.	8fny/	.
.	.	.	.	.	8g/	.
.	.	.	.	.	4e/	2r
.	.	.	.	.	8d/	.
.	.	.	.	.	8e/	.
*	*	*	*	*	*	*custos:F
!	!	!	!	!	!	!LO:LB:g=original
=56-	=56-	=56-	=56-	=56-	=56-	=56-
2.F\	.	2.F\	.	4a/	2c/	4Fny\
.	.	.	.	4g/	.	4E\
.	.	.	.	4a/	2r	4F\
4D/	.	4D/	.	4b/	.	4D/
!	!	!	!	!	!LO:TX:t=P:problem:kreska pseudotaktowa	!
4E\	.	4E\	.	4g/	2r	4E\
4C/	.	4C/	.	4a/	.	4C/
=57-	=57-	=57-	=57-	=57-	=57-	=57-
1.GG	5:6	1.GG	5:6	2b/	4gg\	2G\
.	.	.	.	.	4ff\	.
.	.	.	.	2r	4gg\	2r
.	.	.	.	.	4dd\	.
.	.	.	.	2r	4ee\	2r
.	.	.	.	.	4b/	.
=58-	=58-	=58-	=58-	=58-	=58-	=58-
!	!	!	!	!LO:TX:t=P:problem:kreska pseudotaktowa	!	!
1.AA	5:6	1.AA	5:6	1.r	2.cc\	4A\
.	.	.	.	.	.	4G\
.	.	.	.	.	.	4A\
.	.	.	.	.	8b/	4E\
.	.	.	.	.	8cc\	.
!	!	!	!	!	!LO:TX:t=P:problem:kreska pseudotaktowa	!
.	.	.	.	.	2a/	4F\
.	.	.	.	.	.	4C/
=59-	=59-	=59-	=59-	=59-	=59-	=59-
1.BB	5:6	1.BB	5:6	4bb\	2g/	2.D/
.	.	.	.	4aa\	.	.
.	.	.	.	4bb\	2r	.
.	.	.	.	4ff#X\	.	8C/
.	.	.	.	.	.	8D/
!	!	!	!	!	!LO:TX:t=P:problem:kreska pseudotaktowa	!
.	.	.	.	4gg\	2r	2BB/
.	.	.	.	4dd\	.	.
*	*	*	*	*custos:ee	*	*
!	!	!	!	!LO:LB:g=original	!	!
=60-	=60-	=60-	=60-	=60-	=60-	=60-
1.C	5:6	1.C	5:6	2.ee\	4cc\	2C/
.	.	.	.	.	4b/	.
.	.	.	.	.	4cc\	2r
.	.	.	.	8dd\	4g/	.
.	.	.	.	8ee\	.	.
.	.	.	.	4cc\	4a/	2r
!	!	!	!	!LO:TX:t=P:problem:kreska pseudotaktowa	!	!
.	.	.	.	4ee\	4e/	.
*	*	*	*	*	*custos:f#	*
!	!	!	!	!	!LO:LB:g=original	!
=61-	=61-	=61-	=61-	=61-	=61-	=61-
1.D	5:6 #	1.D	5:6 #	4dd\	2.f#X/	1.r
.	.	.	.	4cc\	.	.
.	.	.	.	4dd\	.	.
.	.	.	.	4a/	8e/	.
.	.	.	.	.	8f#/	.
.	.	.	.	4b/	2d/	.
.	.	.	.	4f#X/	.	.
=62-	=62-	=62-	=62-	=62-	=62-	=62-
!	!	!	!	!	!LO:N:vis=1	!
2.E\	.	2.E\	.	2.g/	1.r	4E\
.	.	.	.	.	.	4D/
.	.	.	.	.	.	4E\
4BB/	.	4BB/	.	8fny/	.	4BB/
.	.	.	.	8g/	.	.
!	!	!	!	!LO:TX:t=P:problem:kreska pseudotaktowa	!	!
4C/	.	4C/	.	2e/	.	4C/
4GG/	.	4GG/	.	.	.	4GG/
=63-	=63-	=63-	=63-	=63-	=63-	=63-
2.AA/	.	2.AA/	.	4cc\	4ee\	2.AA/
.	.	.	.	4b/	4dd\	.
.	.	.	.	4cc\	4ee\	.
4E\	.	4E\	.	4g/	4b/	4E\
!	!	!	!	!	!	!LO:TX:t=P:problem:kreska pseudotaktowa
[2C/	.	[2C/	.	4a/	4cc\	2.C/
.	.	.	.	4e/	4g/	.
=64-	=64-	=64-	=64-	=64-	=64-	=64-
2C/]	6 4	2C/]	6 4	2.f#X/	2.a/	.
.	.	.	.	.	.	4C/
2BB/	6	2BB/	6	.	.	2BB/
.	.	.	.	4g/	4b/	.
2AA/	.	2AA/	.	2a/	2cc\	2AA/
*custos:BB	*	*custos:BB	*	*	*	*
!LO:LB:g=original	!	!LO:LB:g=original	!	!	!	!
=65-	=65-	=65-	=65-	=65-	=65-	=65-
2BB/	6	2BB/	6	2.g/	2b/	2BB/
2C/	6	2C/	6	.	2.a/	2C/
.	.	.	.	4g/	.	.
!	!	!	!	!	!	!LO:TX:t=P:problem:kreska pseudotaktowa
2D/	#	2D/	#	2f#X/	.	2D/
.	.	.	.	.	4b/	.
=66-	=66-	=66-	=66-	=66-	=66-	=66-
2.G\	.	2.G\	.	2g/	2g/	4G\
.	.	.	.	.	.	4F\
.	.	.	.	2r	2r	4G\
4D/	.	4D/	.	.	.	4D/
4E\	.	4E\	.	2r	2r	4E\
!LO:TX:t=P:problem:kreska pseudotaktowa	!	!LO:TX:t=P:problem:kreska pseudotaktowa	!	!	!	!
4BB/	.	4BB/	.	.	.	4BB/
*	*	*	*	*	*	*custos:C
!	!	!	!	!	!	!LO:LB:g=original
=67-	=67-	=67-	=67-	=67-	=67-	=67-
2.C/	.	2.C/	.	4ee\	4gg\	2.C/
.	.	.	.	4dd\	4ff\	.
.	.	.	.	4ee\	4gg\	.
4G\	.	4G\	.	4b/	4dd\	4G\
2E\	.	2E\	.	4cc\	4ee\	2E\
.	.	.	.	4g/	4b/	.
=68-	=68-	=68-	=68-	=68-	=68-	=68-
1AA	.	1AA	.	2.a/	2.cc\	1AA
!	!	!	!	!L	!	!
.	.	.	.	4b/	4dd\	.
*	*	*	*	*custos:cc	*	*
!	!	!	!	!LO:LB:g=original	!LO:TX:b:t=G	!
2EE/	.	2EE/	.	2.cc\	2ee\	2EE/
=69-	=69-	=69-	=69-	=69-	=69-	=69-
2FF/	.	2FF/	.	.	2dd\	2FF/
.	.	.	.	4cc\	.	.
*col	*	*col	*	*	*col	*
!	!	!	!	!	!LO:TX:b:t=2	!
1GG	4:3	1GG	4:3	2cc\	1dd	2.GG/
.	.	.	.	2b/	.	.
.	.	.	.	.	.	4GG/
*Xcol	*	*Xcol	*	*	*Xcol	*
=70-	=70-	=70-	=70-	=70-	=70-	=70-
!	!	!	!	!	!	!LO:TX:t=P:problem:kreska pseudotaktowa
1.C	.	1.C	.	1.cc	1.cc	1.C
=71-	=71-	=71-	=71-	=71-	=71-	=71-
*M2/2	*	*M2/2	*	*M2/2	*M2/2	*M2/2
*met(C|)	*	*met(C|)	*	*met(C|)	*met(C|)	*met(C|)
!LO:TX:b:t=adagio	!	!LO:TX:b:t=adagio	!	!LO:TX:b:t=adagio.	!LO:TX:b:t=adagio,	!LO:TX:b:t=adagio.
2c\	5	2c\	5	2ee\	2gg\	2c\
8r	.	8r	.	8r	8r	8r
8c\	5	8c\	5	8ee\	8gg\	8c\
8c\	6	8c\	6	8ee\	8gg\	8.c\
8B\	.	8B\	.	8dd\	8aa\	.
.	.	.	.	.	.	16B\
=72-	=72-	=72-	=72-	=72-	=72-	=72-
2B\	7:6 #	2B\	7:6 #	4.dd\	4.gg\	4.B\
.	.	.	.	8dd\	8ff#X\	8B\
2A\	#	2A\	#	2cc#X\	2aa\	4A\
.	.	.	.	.	.	8r
!	!	!	!	!	!	!LO:TX:t=P:problem:kreska pseudotaktowa
.	.	.	.	.	.	8A\
=73-	=73-	=73-	=73-	=73-	=73-	=73-
!LO:TX:b:t=preſto.	!	!LO:TX:b:t=preſto.	!	!	!	!LO:TX:b:t=preſto.
4D/	- 9	4D/	- 9	1r	1r	8D/
.	.	.	.	.	.	8D/
4G\	.	4G\	.	.	.	8G\
.	.	.	.	.	.	8G\
4C/	7	4C/	7	.	.	4C/
!LO:TX:t=P:problem:kreska pseudotaktowa	!	!LO:TX:t=P:problem:kreska pseudotaktowa	!	!	!	!
4F\	.	4F\	.	.	.	8r
!	!	!	!	!	!	!LO:TX:t=P:problem:kreska pseudotaktowa
.	.	.	.	.	.	8F\
*	*	*	*	*	*custos:bb	*
!	!	!	!	!	!LO:PB:g=original	!
=74-	=74-	=74-	=74-	=74-	=74-	=74-
4BB/	7	4BB/	7	2r	4r	8BB/
.	.	.	.	.	.	8BB/
4E\	.	4E\	.	.	8r	8E\
!	!	!	!	!	!LO:TX:b:t=preſto.	!
.	.	.	.	.	8bb\	8E\
2A\	5:6	2A\	5:6	8r	4ccc\	4AA/
!	!	!	!	!LO:TX:b:t=preſto.	!	!
.	.	.	.	8ee\	.	.
.	.	.	.	4ffny\	8r	16r
.	.	.	.	.	.	16A\
!	!	!	!	!	!LO:TX:t=P:problem:kreska pseudotaktowa	!
.	.	.	.	.	8aa\	16G\
!	!	!	!	!	!	!LO:TX:t=P:problem:kreska pseudotaktowa
.	.	.	.	.	.	16F\
=75-	=75-	=75-	=75-	=75-	=75-	=75-
2G\	7:6	2G\	7:6	16r	8dd\	4G\
.	.	.	.	16ff\	.	.
.	.	.	.	16ee\	8dd\	.
.	.	.	.	16dd\	.	.
.	.	.	.	4ee\	8gg\	16r
.	.	.	.	.	.	16G\
.	.	.	.	.	8gg\	16F\
.	.	.	.	.	.	16E\
*	*	*	*	*	*	*custos:F
!	!	!	!	!	!	!LO:LB:g=original
2F\	7:6	2F\	7:6	16r	4cc\	4F\
.	.	.	.	16ee\	.	.
.	.	.	.	16dd\	.	.
.	.	.	.	16ccny\	.	.
!	!	!	!	!LO:TX:t=P:problem:kreska pseudotaktowa	!	!
.	.	.	.	4dd\	8r	16r
.	.	.	.	.	.	16F\
!	!	!	!	!	!LO:TX:t=P:problem:kreska pseudotaktowa	!
.	.	.	.	.	8ffny\	16E\
!	!	!	!	!	!	!LO:TX:t=P:problem:kreska pseudotaktowa
.	.	.	.	.	.	16D/
=76-	=76-	=76-	=76-	=76-	=76-	=76-
2E\	7:6	2E\	7:6	16r	8b/	4E\
.	.	.	.	16dd\	.	.
.	.	.	.	16cc\	8b/	.
.	.	.	.	16b/	.	.
.	.	.	.	4cc\	8ee\	16r
.	.	.	.	.	.	16E\
.	.	.	.	.	8ee\	16D/
.	.	.	.	.	.	16C/
!LO:TX:t=P:problem:kreska pseudotaktowa	!	!LO:TX:t=P:problem:kreska pseudotaktowa	!	!	!	!
2D/	7:6	2D/	7:6	16r	4a/	4.D/
.	.	.	.	16cc\	.	.
.	.	.	.	16b/	.	.
.	.	.	.	16a/	.	.
!	!	!	!	!LO:TX:t=P:problem:kreska pseudotaktowa	!	!
.	.	.	.	4b/	16r	.
.	.	.	.	.	16ff\	.
!	!	!	!	!	!	!LO:TX:t=P:problem:kreska pseudotaktowa
.	.	.	.	.	16ee\	8D/
!	!	!	!	!	!LO:TX:t=P:problem:kreska pseudotaktowa	!
.	.	.	.	.	16dd\	.
=77-	=77-	=77-	=77-	=77-	=77-	=77-
2C/	.	2C/	.	4cc\	4ee\	2C/
.	.	.	.	8r	16r	.
.	.	.	.	.	16gg\	.
.	.	.	.	8ee\	16ff\	.
.	.	.	.	.	16ee\	.
*	*	*	*	*custos:a	*	*
!	!	!	!	!LO:LB:g=original	!	!
2F\	5:6	2F\	5:6	8a/	4ff\	4r
.	.	.	.	8a/	.	.
.	.	.	.	8dd\	16r	16r
.	.	.	.	.	16aa\	16F\
!	!	!	!	!LO:TX:t=P:problem:kreska pseudotaktowa	!	!
.	.	.	.	8dd\	16gg\	16E\
!	!	!	!	!	!	!LO:TX:t=P:problem:kreska pseudotaktowa
.	.	.	.	.	16ff\	16D/
=78-	=78-	=78-	=78-	=78-	=78-	=78-
2E\	-	2E\	-	8g/	4gg\	4E\
.	.	.	.	8ee\	.	.
.	.	.	.	4gg\	16r	8r
.	.	.	.	.	16bb\	.
.	.	.	.	.	16aa\	8E\
.	.	.	.	.	16gg\	.
4AA/	7	4AA/	7	16r	4.aa\	8AA/
.	.	.	.	16gg\	.	.
.	.	.	.	16ff\	.	8AA/
.	.	.	.	16ee\	.	.
!	!	!	!	!LO:TX:t=P:problem:kreska pseudotaktowa	!	!
4D/	#	4D/	#	4ff#X\	.	8D/
!	!	!	!	!	!	!LO:TX:t=P:problem:kreska pseudotaktowa
.	.	.	.	.	8aa\	8D/
*custos:GG	*	*custos:GG	*	*	*custos:gg	*
!LO:LB:g=original	!	!LO:LB:g=original	!	!	!LO:LB:g=original	!
=79-	=79-	=79-	=79-	=79-	=79-	=79-
4GG/	.	4GG/	.	8gg\	8gg\	16GG/
.	.	.	.	.	.	16D/
.	.	.	.	8b/	8dd\	16C/
.	.	.	.	.	.	16BB/
[4C/	.	[4C/	.	8e/	16ee\	4C/
.	.	.	.	.	16ee\	.
.	.	.	.	8e/	16dd\	.
.	.	.	.	.	16cc\	.
4C/]	6 4 2	4C/]	6 4 2	8a/	4dd\	4r
.	.	.	.	8a/	.	.
!	!	!	!	!LO:TX:t=P:problem:kreska pseudotaktowa	!LO:TX:t=P:problem:kreska pseudotaktowa	!
4BB/	.	4BB/	.	4d/	4r	8r
!	!	!	!	!	!	!LO:TX:t=P:problem:kreska pseudotaktowa
.	.	.	.	.	.	8B\
=80-	=80-	=80-	=80-	=80-	=80-	=80-
4E\	7	4E\	7	4r	16r	8E\
.	.	.	.	.	16dd\	.
.	.	.	.	.	16cc\	8E\
.	.	.	.	.	16b/	.
4A\	.	4A\	.	16r	4cc\	8A\
.	.	.	.	16ee\	.	.
.	.	.	.	16dd\	.	8A\
.	.	.	.	16cc\	.	.
4D/	7	4D/	7	4dd\	16r	4D/
.	.	.	.	.	16cc\	.
.	.	.	.	.	16b/	.
.	.	.	.	.	16a/	.
!LO:TX:t=P:problem:kreska pseudotaktowa	!	!LO:TX:t=P:problem:kreska pseudotaktowa	!	!	!	!
4G\	.	4G\	.	16r	4b/	8r
.	.	.	.	16ffny\	.	.
!	!	!	!	!	!	!LO:TX:t=P:problem:kreska pseudotaktowa
.	.	.	.	16ee\	.	8G\
!	!	!	!	!LO:TX:t=P:problem:kreska pseudotaktowa	!	!
.	.	.	.	16dd\	.	.
=81-	=81-	=81-	=81-	=81-	=81-	=81-
4c\	.	4c\	.	8ee\	4cc\	16C/
.	.	.	.	.	.	16c\
.	.	.	.	8aa\	.	16B\
.	.	.	.	.	.	16A\
*	*	*	*	*	*	*custos:B
!	!	!	!	!	!	!LO:LB:g=original
[<4B\	.	[<4B\	.	8dd\	8r	4B\
.	.	.	.	8dd\	8gg\	.
4B\]	4 2	4B\]	4 2	8gg\	8cc\	16r
.	.	.	.	.	.	16B\
.	.	.	.	8gg\	8cc\	16A\
.	.	.	.	.	.	16G\
!LO:TX:t=P:problem:kreska pseudotaktowa	!	!LO:TX:t=P:problem:kreska pseudotaktowa	!	!	!	!LO:TX:t=P:problem:kreska pseudotaktowa
[<4A\	.	[<4A\	.	4cc\	8ff\	4A\
.	.	.	.	.	8ff\	.
=82-	=82-	=82-	=82-	=82-	=82-	=82-
!	!	!	!	!LO:TX:t=P:problem:kreska pseudotaktowa	!	!
4A\]	2	4A\]	2	4r	4b\	16r
.	.	.	.	.	.	16A\
.	.	.	.	.	.	16G\
.	.	.	.	.	.	16F\
[<4G\	6	[<4G\	6	8r	8r	4.G\
.	.	.	.	8ee\	8gg\	.
4G\]	4 2	4G\]	4 2	8a/	8cc\	.
.	.	.	.	8a/	8cc\	8G\
!	!	!	!	!	!LO:TX:t=P:problem:kreska pseudotaktowa	!LO:TX:t=P:problem:kreska pseudotaktowa
4F#X\	.	4F#X\	.	8dd\	4r	4F#X\
.	.	.	.	8dd\	.	.
*	*	*	*	*custos:g	*	*
!	!	!	!	!LO:LB:g=original	!	!
=83-	=83-	=83-	=83-	=83-	=83-	=83-
4G\	.	4G\	.	4g/	4r	4G\
4E\	.	4E\	.	16r	8r	16r
.	.	.	.	16gg\	.	16E\
.	.	.	.	16ff\	8ee\	16D/
.	.	.	.	16ee\	.	16C/
2D/	.	2D/	.	4ff\	8a/	4D/
.	.	.	.	.	8a/	.
.	.	.	.	16r	8dd\	16r
.	.	.	.	16ff\	.	16D/
.	.	.	.	16ee\	8dd\	16C/
!	!	!	!	!LO:TX:t=P:problem:kreska pseudotaktowa	!	!LO:TX:t=P:problem:kreska pseudotaktowa
.	.	.	.	16dd\	.	16BB/
=84-	=84-	=84-	=84-	=84-	=84-	=84-
4C/	.	4C/	.	16ee\	16g/	4C/
.	.	.	.	16cc\	16ee\	.
.	.	.	.	16b/	16dd\	.
.	.	.	.	16a/	16cc\	.
4G\	.	4G\	.	4b/	16dd\	16r
.	.	.	.	.	16b/	16G\
.	.	.	.	.	16a/	16Fny\
.	.	.	.	.	16g/	16E\
*	*	*	*	*	*custos:a	*
!LO:TX:t=P:problem:kreska pseudotaktowa	!	!LO:TX:t=P:problem:kreska pseudotaktowa	!	!	!LO:LB:g=original	!
2Fny\	5:6	2Fny\	5:6	8r	4a/	4F\
.	.	.	.	8cc\	.	.
!	!	!	!	!LO:TX:t=P:problem:kreska pseudotaktowa	!	!
.	.	.	.	4dd\	16r	16r
.	.	.	.	.	16aa\	16F\
.	.	.	.	.	16gg\	16E\
!	!	!	!	!	!LO:TX:t=P:problem:kreska pseudotaktowa	!LO:TX:t=P:problem:kreska pseudotaktowa
.	.	.	.	.	16ff\	16D/
=85-	=85-	=85-	=85-	=85-	=85-	=85-
2E\	7:6	2E\	7:6	16r	4gg\	4E\
.	.	.	.	16dd\	.	.
.	.	.	.	16cc\	.	.
.	.	.	.	16b/	.	.
.	.	.	.	4.cc\	16r	16r
.	.	.	.	.	16gg\	16E\
.	.	.	.	.	16ff\	16D/
.	.	.	.	.	16ee\	16C/
2D/	7:6:5 #:4#r	2D/	7:6:5 #:4#r	.	8ff#X\	4D/
.	.	.	.	8b/	4gg\	.
!	!	!	!	!LO:TX:t=P:problem:kreska pseudotaktowa	!	!
.	.	.	.	4a/	.	8r
!	!	!	!	!	!	!LO:TX:t=P:problem:kreska pseudotaktowa
!	!	!	!	!	!LO:TX:t=P:problem:kreska pseudotaktowa	!
.	.	.	.	.	8ff#X\	8D/
*	*	*	*	*	*	*custos:GG
!	!	!	!	!	!	!LO:LB:g=original
=86-	=86-	=86-	=86-	=86-	=86-	=86-
4GG/	.	4GG/	.	8b/	4.gg\	8GG/
.	.	.	.	8b/	.	8GG/
4C/	.	4C/	.	4cc\	.	8C/
.	.	.	.	.	8ee\	8C/
2FF/	.	2FF/	.	8r	8a/	4FF/
.	.	.	.	8cc\	8a/	.
.	.	.	.	8fny/	8r	8r
!	!	!	!	!	!LO:TX:t=P:problem:kreska pseudotaktowa	!LO:TX:t=P:problem:kreska pseudotaktowa
.	.	.	.	16f/	8aa\	8FF/
!	!	!	!	!LO:TX:t=P:problem:kreska pseudotaktowa	!	!
.	.	.	.	16ff\	.	.
=87-	=87-	=87-	=87-	=87-	=87-	=87-
2GG/	5:6	2GG/	5:6	8b/	8dd\	4GG/
.	.	.	.	8b/	8dd\	.
.	.	.	.	8ee\	8gg\	8r
.	.	.	.	8ee\	8gg\	8GG/
4.AA/	.	4.AA/	.	8.a/	8.cc\	4AA/
.	.	.	.	16b/	16dd\	.
.	.	.	.	4cc\	16ee\	8r
.	.	.	.	.	16ee\	.
!	!	!	!	!	!	!LO:TX:t=P:problem:kreska pseudotaktowa
8A\	.	8A\	.	.	16dd\	8A\
!	!	!	!	!	!LO:TX:t=P:problem:kreska pseudotaktowa	!
.	.	.	.	.	16cc\	.
=88-	=88-	=88-	=88-	=88-	=88-	=88-
4D/	7	4D/	7	16r	4.dd\	8D/
.	.	.	.	16cc\	.	.
.	.	.	.	16b/	.	8D/
.	.	.	.	16a/	.	.
*	*	*	*	*custos:b	*	*
!	!	!	!	!LO:LB:g=original	!	!
4G\	.	4G\	.	4b/	.	8G\
.	.	.	.	.	8dd\	8G\
!LO:TX:t=P:problem:kreska pseudotaktowa	!	!LO:TX:t=P:problem:kreska pseudotaktowa	!	!	!	!
2C/	.	2C/	.	4cc\	4cc\	2.C/
.	.	.	.	8r	8r	.
!	!	!	!	!LO:TX:t=P:problem:kreska pseudotaktowa	!LO:TX:t=P:problem:kreska pseudotaktowa	!
.	.	.	.	8ee\	8gg\	.
=89-	=89-	=89-	=89-	=89-	=89-	=89-
2C/	6:5	2C/	6:5	8a/	8cc\	.
.	.	.	.	8a/	8cc\	.
.	.	.	.	8cc\	8ee\	4C/
.	.	.	.	8cc\	8ee\	.
*	*	*	*	*	*custos:b	*
!	!	!	!	!	!LO:LB:g=original	!
[<2E\	#:4#r	[<2E\	#:4#r	4g#X/	4b/	2.E\
.	.	.	.	8a/	8cc\	.
!	!	!	!	!LO:TX:t=P:problem:kreska pseudotaktowa	!LO:TX:t=P:problem:kreska pseudotaktowa	!
.	.	.	.	8g#X/	8b/	.
=90-	=90-	=90-	=90-	=90-	=90-	=90-
4E\]	6 4	4E\]	6 4	4a/	4cc\	.
4D/	6	4D/	6	4b/	4dd\	4D/
2C/	5:6	2C/	5:6	4cc\	8ee\	2C/
.	.	.	.	.	8gg\	.
.	.	.	.	8cc\	4.aa\	.
!	!	!	!	!LO:TX:t=P:problem:kreska pseudotaktowa	!	!
.	.	.	.	8ee\	.	.
*custos:BB	*	*custos:BB	*	*	*	*
!LO:LB:g=original	!	!LO:LB:g=original	!	!	!	!
=91-	=91-	=91-	=91-	=91-	=91-	=91-
1BB	7:6:5 #:4#r	1BB	7:6:5 #:4#r	4dd#X\	.	1BB
.	.	.	.	.	8aa\	.
.	.	.	.	2ee\	4gg\	.
.	.	.	.	.	2ff#X\	.
.	.	.	.	4dd#X\	.	.
=92-	=92-	=92-	=92-	=92-	=92-	=92-
!	!	!	!	!	!LO:TX:t=P:problem:kreska pseudotaktowa	!LO:TX:t=P:problem:kreska pseudotaktowa
1ryy	.	1ryy	.	1ee	1ee	1EE
=93-	=93-	=93-	=93-	=93-	=93-	=93-
*M12/8	*	*M12/8	*	*M12/8	*M12/8	*M12/8
!LO:TX:b:t=allegro.	!	!LO:TX:b:t=allegro.	!	!LO:TX:b:t=allegro.	!LO:TX:b:t=allegro.	!
!	!	!	!	!	!LO:N:vis=4	!
2.C/	.	2.C/	.	0.r	4.r	1.r
.	.	.	.	.	4cc\	.
.	.	.	.	.	8cc\	.
4.C/	.	4.C/	.	.	8ee\	.
.	.	.	.	.	8ffny\	.
.	.	.	.	.	8gg\	.
!LO:TX:t=P:problem:kreska pseudotaktowa	!	!LO:TX:t=P:problem:kreska pseudotaktowa	!	!	!	!
4.FF/	.	4.FF/	.	.	8ff\	.
.	.	.	.	.	8gg\	.
!	!	!	!	!	!LO:TX:t=P:problem:kreska pseudotaktowa	!
.	.	.	.	.	8aa\	.
=94-	=94-	=94-	=94-	=94-	=94-	=94-
!	!	!	!	!	!	!LO:N:vis=4
4.C/	.	4.C/	.	.	8gg\	4.r
.	.	.	.	.	8ee\	.
.	.	.	.	.	8dd\	.
!	!	!	!	!	!	!LO:TX:b:t=allegro.
4C/	.	4C/	.	.	8cc\	4C/
.	.	.	.	.	8b/	.
8D/	.	8D/	.	.	8a/	8D/
4.E\	.	4.E\	.	.	8g/	8E\
.	.	.	.	.	8a/	8F\
.	.	.	.	.	8b/	8G\
!LO:TX:t=P:problem:kreska pseudotaktowa	!	!LO:TX:t=P:problem:kreska pseudotaktowa	!	!	!LO:TX:t=P:problem:kreska pseudotaktowa	!
4.F\	6	4.F\	6	.	4.a/	8F\
.	.	.	.	.	.	8G\
!	!	!	!	!	!	!LO:TX:t=P:problem:kreska pseudotaktowa
.	.	.	.	.	.	8A\
=95-	=95-	=95-	=95-	=95-	=95-	=95-
!	!	!	!	!LO:N:vis=4	!	!
4.E\	.	4.E\	.	4.r	8b/	8G\
.	.	.	.	.	8gg\	8E\
.	.	.	.	.	8ff\	8D/
4.C/	.	4.C/	.	4gny/	8ee\	8C/
.	.	.	.	.	8dd\	8BB/
.	.	.	.	8a/	8cc\	8AA/
4.GG/	.	4.GG/	.	8b/	4.b/	4.GG/
.	.	.	.	8cc\	.	.
.	.	.	.	8ddny\	.	.
!LO:TX:t=P:problem:kreska pseudotaktowa	!	!LO:TX:t=P:problem:kreska pseudotaktowa	!	!	!LO:N:vis=4	!LO:N:vis=4
4.FF/	.	4.FF/	.	8cc\	4.r	4.r
.	.	.	.	8dd\	.	.
!	!	!	!	!LO:TX:t=P:problem:kreska pseudotaktowa	!	!
.	.	.	.	8ee\	.	.
*	*	*	*	*	*custos:b	*custos:GG
!	!	!	!	!	!LO:LB:g=original	!LO:LB:g=original
=96-	=96-	=96-	=96-	=96-	=96-	=96-
!	!	!	!	!	!LO:N:vis=4	!LO:N:vis=4
4.GG/	.	4.GG/	.	8dd\	4.r	4.r
.	.	.	.	8b/	.	.
.	.	.	.	8a/	.	.
4GG/	.	4GG/	.	8g/	4b/	4GG/
.	.	.	.	8f/	.	.
8AA/	.	8AA/	.	8e/	8cc\	8AA/
4.BB/	.	4.BB/	.	4.d/	8dd\	8BB/
.	.	.	.	.	8ee\	8C/
.	.	.	.	.	8ff\	8D/
!LO:TX:t=P:problem:kreska pseudotaktowa	!	!LO:TX:t=P:problem:kreska pseudotaktowa	!	!LO:N:vis=4	!	!
4.C/	6	4.C/	6	4.r	8ee\	8C/
.	.	.	.	.	8dd\	8D/
!	!	!	!	!	!LO:TX:t=P:problem:kreska pseudotaktowa	!LO:TX:t=P:problem:kreska pseudotaktowa
.	.	.	.	.	8cc\	8E\
*	*	*	*	*custos:g	*	*
!	!	!	!	!LO:LB:g=original	!	!
=97-	=97-	=97-	=97-	=97-	=97-	=97-
4BB/	.	4BB/	.	4g/	4dd\	8D/
.	.	.	.	.	.	8BB/
8AA/	.	8AA/	.	8a/	8cc\	8AA/
8GG/	.	8GG/	.	8b/	8b/	8GG/
8FF/	.	8FF/	.	8a/	8dd\	8FF/
8EE/	.	8EE/	.	8g/	8cc\	8EE/
!	!	!	!	!	!	!LO:TX:t=P:problem:kreska pseudotaktowa
2.DD/	#:4#r	2.DD/	#:4#r	4f#X/	8b/	2.DD/
.	.	.	.	.	8a/	.
.	.	.	.	8g/	8g/	.
!	!	!	!	!	!LO:TX:t=P:problem:kreska pseudotaktowa	!
.	.	.	.	4g/	4.a/	.
!	!	!	!	!LO:TX:t=P:problem:kreska pseudotaktowa	!	!
.	.	.	.	8f#X/	.	.
*custos:GG	*	*custos:GG	*	*	*	*
!LO:LB:g=original	!	!LO:LB:g=original	!	!	!	!
=98-	=98-	=98-	=98-	=98-	=98-	=98-
2.GG/	.	2.GG/	.	8g/	4.g/	2.GG/
.	.	.	.	8dd\	.	.
.	.	.	.	8cc\	.	.
.	.	.	.	4.b/	8r	.
.	.	.	.	.	8gg\	.
.	.	.	.	.	8ff\	.
!	!	!	!	!LO:N:vis=4	!	!
4.C/	.	4.C/	.	4.r	4.ee\	8r
.	.	.	.	.	.	8C/
.	.	.	.	.	.	8BB/
!	!	!	!	!	!LO:N:vis=4	!
8AA/	.	8AA/	.	8r	4.r	8AA/
8A\	.	8A\	.	8cc\	.	8A\
!LO:TX:t=P:problem:kreska pseudotaktowa	!	!LO:TX:t=P:problem:kreska pseudotaktowa	!	!LO:TX:t=P:problem:kreska pseudotaktowa	!	!LO:TX:t=P:problem:kreska pseudotaktowa
8G\	.	8G\	.	8b/	.	8G\
=99-	=99-	=99-	=99-	=99-	=99-	=99-
4.F#X\	.	4.F#X\	.	4.a/	8r	8F#X\
.	.	.	.	.	8dd\	8D/
.	.	.	.	.	8cc\	8F#X\
4.G\	.	4.G\	.	8r	8b/	4.G\
.	.	.	.	8gg\	8g/	.
.	.	.	.	8ff\	8b/	.
!	!	!	!	!	!	!LO:N:vis=2
4.C/	.	4.C/	.	8ee\	8cc\	2.r
.	.	.	.	8cc\	8aa\	.
.	.	.	.	8b/	8gg\	.
!LO:TX:t=P:problem:kreska pseudotaktowa	!	!LO:TX:t=P:problem:kreska pseudotaktowa	!	!	!	!
4.D/	#	4.D/	#	8a/	8ff#X\	.
.	.	.	.	8f#X/	8dd\	.
!	!	!	!	!LO:TX:t=P:problem:kreska pseudotaktowa	!	!
.	.	.	.	8a/	8ff#X\	.
*	*	*	*	*	*custos:gg	*
!	!	!	!	!	!LO:LB:g=original	!
=100-	=100-	=100-	=100-	=100-	=100-	=100-
4.G\	.	4.G\	.	4.b/	4.gg\	8r
.	.	.	.	.	.	8G\
.	.	.	.	.	.	8Fny\
!	!	!	!	!LO:N:vis=4	!	!
4.E\	.	4.E\	.	4.r	8r	8E\
.	.	.	.	.	8ccc\	8C/
.	.	.	.	.	8bb\	8E\
8Fny\	.	8Fny\	.	8r	8aa\	8F\
8D/	.	8D/	.	8ff\	8ffny\	8D/
8C/	6	8C/	6	8ee\	8aa\	8C/
!LO:TX:t=P:problem:kreska pseudotaktowa	!	!LO:TX:t=P:problem:kreska pseudotaktowa	!	!	!LO:TX:t=P:problem:kreska pseudotaktowa	!
4.BB/	.	4.BB/	.	8dd\	4.gg\	8BB/
.	.	.	.	8b/	.	8GG/
!	!	!	!	!LO:TX:t=P:problem:kreska pseudotaktowa	!	!
.	.	.	.	8dd\	.	8BB/
*	*	*	*	*	*	*custos:C
!	!	!	!	!	!	!LO:LB:g=original
=101-	=101-	=101-	=101-	=101-	=101-	=101-
!	!	!	!	!	!LO:N:vis=4	!
4C/	.	4C/	.	4.ee\	4.r	8C/
.	.	.	.	.	.	8E\
8D/	.	8D/	.	.	.	8D/
8C/	.	8C/	.	4e/	4g/	8C/
8BB/	6	8BB/	6	.	.	8BB/
8AA/	.	8AA/	.	8fny/	8a/	8AA/
*	*	*	*	*custos:g	*	*
!	!	!	!	!LO:LB:g=original	!	!
4.GG/	.	4.GG/	.	8g/	8b/	4.GG/
.	.	.	.	8a/	8cc\	.
.	.	.	.	8b/	8dd\	.
!LO:TX:t=P:problem:kreska pseudotaktowa	!	!LO:TX:t=P:problem:kreska pseudotaktowa	!	!	!	!LO:TX:t=P:problem:kreska pseudotaktowa
!	!	!	!	!	!	!LO:N:vis=4
4.AA/	.	4.AA/	.	8a/	8cc\	4.r
.	.	.	.	8b/	8dd\	.
!	!	!	!	!LO:TX:t=P:problem:kreska pseudotaktowa	!	!
.	.	.	.	8cc\	8ee\	.
=102-	=102-	=102-	=102-	=102-	=102-	=102-
!	!	!	!	!	!	!LO:N:vis=4
4.BB/	.	4.BB/	.	8b/	8dd\	4.r
.	.	.	.	8bb\	8gg\	.
.	.	.	.	8aa\	8ff\	.
4C/	.	4C/	.	4gg\	4ee\	4C/
8D/	.	8D/	.	8ff\	8dd\	8D/
4.E\	.	4.E\	.	4.ee\	4.cc\	8E\
.	.	.	.	.	.	8F\
.	.	.	.	.	.	8G\
!	!	!	!	!LO:N:vis=4	!LO:N:vis=4	!
8F\	.	8F\	.	4.r	4.r	8F\
8G\	.	8G\	.	.	.	8G\
!	!	!	!	!	!	!LO:TX:t=P:problem:kreska pseudotaktowa
8A\	.	8A\	.	.	.	8A\
*custos:G	*	*custos:G	*	*	*	*
!LO:LB:g=original	!	!LO:LB:g=original	!	!	!	!
=103-	=103-	=103-	=103-	=103-	=103-	=103-
!	!	!	!	!	!LO:N:vis=4	!
8G\	.	8G\	.	8r	4.r	8G\
8c\	.	8c\	.	8ee\	.	8c\
8B\	.	8B\	.	8dd\	.	8B\
8A\	.	8A\	.	8cc\	4ee\	8A\
8G\	.	8G\	.	8b/	.	8G\
8F\	.	8F\	.	8a/	8ff\	8F\
8E\	.	8E\	.	8g/	4.gg\	8E\
8C/	.	8C/	.	8e/	.	8C/
8E\	.	8E\	.	8g/	.	8E\
!LO:TX:t=P:problem:kreska pseudotaktowa	!	!LO:TX:t=P:problem:kreska pseudotaktowa	!	!LO:TX:t=P:problem:kreska pseudotaktowa	!	!LO:TX:t=P:problem:kreska pseudotaktowa
4.F\	5	4.F\	5	4.a/	8cc\	4.F\
.	.	.	.	.	8a/	.
!	!	!	!	!	!LO:TX:t=P:problem:kreska pseudotaktowa	!
.	.	.	.	.	8cc\	.
=104-	=104-	=104-	=104-	=104-	=104-	=104-
8F#X\	6	8F#X\	6	8a/	4.dd\	8F#X\
8D/	.	8D/	.	8f#X/	.	8D/
8F#X\	.	8F#X\	.	8a/	.	8F#\
4.G\	.	4.G\	.	4.b/	8dd\	4.G\
.	.	.	.	.	8b/	.
.	.	.	.	.	8dd\	.
8G#X\	6	8G#X\	6	8b/	4.ee\	8G#X\
8E\	.	8E\	.	8g/	.	8E\
8G#X\	.	8G#X\	.	8b/	.	8G#X\
!	!	!	!	!LO:TX:t=P:problem:kreska pseudotaktowa	!	!
4.A\	.	4.A\	.	4.cc\	8ee\	4.A\
.	.	.	.	.	8cc\	.
.	.	.	.	.	8ee\	.
*	*	*	*	*	*custos:ff	*custos:A
!	!	!	!	!	!LO:LB:g=original	!LO:LB:g=original
=105-	=105-	=105-	=105-	=105-	=105-	=105-
8A\	6	8A\	6	8cc\	4.ff\	8A\
8Fny\	.	8Fny\	.	8a/	.	8Fny\
8A\	.	8A\	.	8cc\	.	8A\
4.B-X\	5	4.B-X\	5	4.dd\	8ff\	4.B-X\
.	.	.	.	.	8dd\	.
.	.	.	.	.	8ff\	.
!LO:N:acc=#	!	!LO:N:acc=#	!	!	!	!LO:N:acc=#
8Bn\	6	8Bn\	6	8dd\	2.gg\	8Bn\
8Gny\	.	8Gny\	.	8b/	.	8Gny\
!LO:N:acc=#	!	!LO:N:acc=#	!	!	!	!
8Bn\	.	8Bn\	.	8dd\	.	8B\
4.c\	.	4.c\	.	4.ee\	.	4.c\
*	*	*	*	*custos:ee	*	*
!	!	!	!	!LO:LB:g=original	!	!
=106-	=106-	=106-	=106-	=106-	=106-	=106-
*M2/2	*	*M2/2	*	*M2/2	*M2/2	*M2/2
*met(C|)	*	*met(C|)	*	*met(C|)	*met(C|)	*met(C|)
1G	.	1G	.	1r	1r	16r
.	.	.	.	.	.	16G\
.	.	.	.	.	.	16F\
.	.	.	.	.	.	16E\
.	.	.	.	.	.	16D/
.	.	.	.	.	.	16E\
.	.	.	.	.	.	16BB/
.	.	.	.	.	.	16C/
.	.	.	.	.	.	16D/
.	.	.	.	.	.	16GG/
.	.	.	.	.	.	16AA/
.	.	.	.	.	.	16BB/
.	.	.	.	.	.	16C/
.	.	.	.	.	.	16D/
.	.	.	.	.	.	16E\
.	.	.	.	.	.	16F\
=107-	=107-	=107-	=107-	=107-	=107-	=107-
0G	.	0G	.	16r	16r	0G
.	.	.	.	16ee\	16gg\	.
.	.	.	.	16dd\	16ff\	.
.	.	.	.	16cc\	16ee\	.
.	.	.	.	16b/	16dd\	.
.	.	.	.	16cc\	16ee\	.
.	.	.	.	16g/	16b/	.
.	.	.	.	16a/	16cc\	.
.	.	.	.	16b/	16dd\	.
.	.	.	.	16e/	16g/	.
.	.	.	.	16fny/	16a/	.
.	.	.	.	16g/	16b/	.
.	.	.	.	16a/	16cc\	.
.	.	.	.	16b/	16dd\	.
.	.	.	.	16cc\	16ee\	.
.	.	.	.	16dd\	16ff\	.
=108-	=108-	=108-	=108-	=108-	=108-	=108-
.	.	.	.	4ee\	4.gg\	.
.	.	.	.	2cc\	.	.
.	.	.	.	.	8ee\	.
.	.	.	.	.	2dd\	.
.	.	.	.	4b/	.	.
=109-	=109-	=109-	=109-	=109-	=109-	=109-
0C;	.	0C;	.	0cc;<	0cc;	0C
==	==	==	==	==	==	==
*-	*-	*-	*-	*-	*-	*-
!!!system-decoration: s1[(s2,s3)]s4,s5
!!!RDF**kern: > = above
!!!RDF**kern: < = below
!!!ENC: Andrzej Gręziak
!!!END: 2022-11-15
!!!ENC: Natalia Wrzos
!!!END: 2022-12-02
!!!YEC: Copyright 2022 Narodowy Instytut Fryderyka Chopina (https://polishscores.org)
!!!YEM: License CC-BY-4.0 (https://creativecommons.org/licenses/by/4.0)
